uploads/global/teams_10.svg

<svg height="40" viewBox="0 0 40 40" width="40" xmlns="http://www.w3.org/2000/svg"><g fill="#04de47" fill-rule="evenodd" transform="translate(4.376822 1.961538)"><path d="m6.51352117 34.8025641h-2.96043304v-2.1307692l2.96043304-2.8410257z" opacity=".15"/><path d="m16.3442054 34.8025641h-2.960433v-9.2333333l2.960433-2.8410257z" opacity=".15"/><path d="m26.4108147 34.8025641h-2.960433v-16.3358974l2.960433-2.8410257z" opacity=".15"/><g fill-rule="nonzero"><path d="m5.68494101 25.5692308h-1.42123525c-1.17738983 0-2.13185288.9539778-2.13185288 2.1307692v5.6820513c0 1.1767913.95446305 2.1307692 2.13185288 2.1307692h1.42123525c1.17738984 0 2.13185288-.9539779 2.13185288-2.1307692v-5.6820513c0-1.1767914-.95446304-2.1307692-2.13185288-2.1307692zm.71061763 7.8128205c-.00046988.3920691-.31834914.7097868-.71061763.7102564h-1.42123525c-.39226848-.0004696-.71014775-.3181873-.71061763-.7102564v-5.6820513c.00046988-.3920691.31834915-.7097868.71061763-.7102564h1.42123525c.39226849.0004696.71014775.3181873.71061763.7102564z"/><path d="m15.6335878 18.4666667h-1.4212353c-1.1773898 0-2.1318528.9539778-2.1318528 2.1307692v12.7846154c0 1.1767913.954463 2.1307692 2.1318528 2.1307692h1.4212353c1.1773898 0 2.1318529-.9539779 2.1318529-2.1307692v-12.7846154c0-1.1767914-.9544631-2.1307692-2.1318529-2.1307692zm.7106176 14.9153846c-.0004699.3920691-.3183491.7097868-.7106176.7102564h-1.4212353c-.3922685-.0004696-.7101477-.3181873-.7106176-.7102564v-12.7846154c.0004699-.3920691.3183491-.7097868.7106176-.7102564h1.4212353c.3922685.0004696.7101477.3181873.7106176.7102564z"/><path d="m25.5822346 9.94358974h-1.4212353c-1.1773898 0-2.1318529.95397786-2.1318529 2.13076926v21.3076923c0 1.1767913.9544631 2.1307692 2.1318529 2.1307692h1.4212353c1.1773898 0 2.1318528-.9539779 2.1318528-2.1307692v-21.3076923c0-1.1767914-.954463-2.13076926-2.1318528-2.13076926zm.7106176 23.43846156c-.0004699.3920691-.3183492.7097868-.7106176.7102564h-1.4212353c-.3922685-.0004696-.7101477-.3181873-.7106176-.7102564v-21.3076923c.0004699-.3920691.3183491-.7097868.7106176-.7102564h1.4212353c.3922684.0004696.7101477.3181873.7106176.7102564z"/></g><path d="m29.1323381.69605128c-.0044647-.05802243-.0160641-.11527413-.034536-.17046154-.0054305-.03364987-.0132191-.06687694-.0233083-.09943589-.0202138-.03651959-.0435624-.07121573-.0697826-.10369744-.0251386-.0439119-.0549696-.0849682-.0889694-.1224482l-.0095222-.01278462c-.029662-.02139399-.0609807-.04039417-.0936594-.05682051-.040544-.03112591-.0845074-.05752865-.1310379-.07869641-.0503711-.01653688-.1025065-.02712076-.155341-.03153539-.0332507-.00934478-.0671785-.0160889-.1014762-.02017128h-5.684941c-.3924633 0-.7106177.31799263-.7106177.71025641s.3181544.71025641.7106177.71025641h4.0283492c-10.0101863 10.24189748-25.51742628 18.46382568-25.67731524 18.54848818-.23356839.1129635-.3869665.3441875-.40017082.6031958-.01320433.2590084.11588459.504619.33675527.6407264s.49840491.1410706.72400569.0129476c.16401055-.0860831 15.784523-8.3663944 25.9626992-18.74167798v3.90811487c0 .39226379.3181544.71025641.7106177.71025641.3924632 0 .7106176-.31799262.7106176-.71025641v-5.68205128z"/></g></svg>

<?xml version="1.0" encoding="UTF-8"?>
<svg width="40px" height="40px" viewBox="0 0 40 40" version="1.1" xmlns="http://www.w3.org/2000/svg" xmlns:xlink="http://www.w3.org/1999/xlink">
    <!-- Generator: Sketch 52.4 (67378) - http://www.bohemiancoding.com/sketch -->
    <title>assets/homepage/teams_10</title>
    <desc>Created with Sketch.</desc>
    <g id="Page-1" stroke="none" stroke-width="1" fill="none" fill-rule="evenodd">
        <g id="Wunder-Careers-03-Teams" transform="translate(-41.000000, -4652.000000)" fill="#04DE47">
            <g id="Enginiering-Copy-7" transform="translate(10.000000, 4396.000000)">
                <g id="Group-21" transform="translate(31.000000, 256.000000)">
                    <g id="good-trends" transform="translate(4.376822, 1.961538)">
                        <polygon id="Path" opacity="0.149999991" points="6.51352117 34.8025641 3.55308813 34.8025641 3.55308813 32.6717949 6.51352117 29.8307692"></polygon>
                        <polygon id="Path" opacity="0.149999991" points="16.3442054 34.8025641 13.3837724 34.8025641 13.3837724 25.5692308 16.3442054 22.7282051"></polygon>
                        <polygon id="Path" opacity="0.149999991" points="26.4108147 34.8025641 23.4503817 34.8025641 23.4503817 18.4666667 26.4108147 15.625641"></polygon>
                        <path d="M5.68494101,25.5692308 L4.26370576,25.5692308 C3.08631593,25.5692308 2.13185288,26.5232086 2.13185288,27.7 L2.13185288,33.3820513 C2.13185288,34.5588426 3.08631593,35.5128205 4.26370576,35.5128205 L5.68494101,35.5128205 C6.86233085,35.5128205 7.81679389,34.5588426 7.81679389,33.3820513 L7.81679389,27.7 C7.81679389,26.5232086 6.86233085,25.5692308 5.68494101,25.5692308 Z M6.39555864,33.3820513 C6.39508876,33.7741204 6.0772095,34.0918381 5.68494101,34.0923077 L4.26370576,34.0923077 C3.87143728,34.0918381 3.55355801,33.7741204 3.55308813,33.3820513 L3.55308813,27.7 C3.55355801,27.3079309 3.87143728,26.9902132 4.26370576,26.9897436 L5.68494101,26.9897436 C6.0772095,26.9902132 6.39508876,27.3079309 6.39555864,27.7 L6.39555864,33.3820513 Z" id="Shape" fill-rule="nonzero"></path>
                        <path d="M15.6335878,18.4666667 L14.2123525,18.4666667 C13.0349627,18.4666667 12.0804997,19.4206445 12.0804997,20.5974359 L12.0804997,33.3820513 C12.0804997,34.5588426 13.0349627,35.5128205 14.2123525,35.5128205 L15.6335878,35.5128205 C16.8109776,35.5128205 17.7654407,34.5588426 17.7654407,33.3820513 L17.7654407,20.5974359 C17.7654407,19.4206445 16.8109776,18.4666667 15.6335878,18.4666667 Z M16.3442054,33.3820513 C16.3437355,33.7741204 16.0258563,34.0918381 15.6335878,34.0923077 L14.2123525,34.0923077 C13.820084,34.0918381 13.5022048,33.7741204 13.5017349,33.3820513 L13.5017349,20.5974359 C13.5022048,20.2053668 13.820084,19.8876491 14.2123525,19.8871795 L15.6335878,19.8871795 C16.0258563,19.8876491 16.3437355,20.2053668 16.3442054,20.5974359 L16.3442054,33.3820513 Z" id="Shape" fill-rule="nonzero"></path>
                        <path d="M25.5822346,9.94358974 L24.1609993,9.94358974 C22.9836095,9.94358974 22.0291464,10.8975676 22.0291464,12.074359 L22.0291464,33.3820513 C22.0291464,34.5588426 22.9836095,35.5128205 24.1609993,35.5128205 L25.5822346,35.5128205 C26.7596244,35.5128205 27.7140874,34.5588426 27.7140874,33.3820513 L27.7140874,12.074359 C27.7140874,10.8975676 26.7596244,9.94358974 25.5822346,9.94358974 Z M26.2928522,33.3820513 C26.2923823,33.7741204 25.974503,34.0918381 25.5822346,34.0923077 L24.1609993,34.0923077 C23.7687308,34.0918381 23.4508516,33.7741204 23.4503817,33.3820513 L23.4503817,12.074359 C23.4508516,11.6822899 23.7687308,11.3645722 24.1609993,11.3641026 L25.5822346,11.3641026 C25.974503,11.3645722 26.2923823,11.6822899 26.2928522,12.074359 L26.2928522,33.3820513 Z" id="Shape" fill-rule="nonzero"></path>
                        <path d="M29.1323381,0.696051282 C29.1278734,0.638028853 29.116274,0.580777151 29.0978021,0.525589744 C29.0923716,0.491939865 29.084583,0.458712798 29.0744938,0.426153846 C29.05428,0.389634264 29.0309314,0.35493812 29.0047112,0.32245641 C28.9795726,0.278544508 28.9497416,0.237488212 28.9157418,0.200008205 L28.9062196,0.18722359 C28.8765576,0.165829596 28.8452389,0.146829422 28.8125602,0.130403077 C28.7720162,0.0992771692 28.7280528,0.0728744278 28.6815223,0.0517066667 C28.6311512,0.0351697938 28.5790158,0.0245859107 28.5261813,0.0201712821 C28.4929306,0.0108265026 28.4590028,0.00408237872 28.4247051,0 L22.7397641,0 C22.3473008,-2.40192294e-17 22.0291464,0.317992626 22.0291464,0.71025641 C22.0291464,1.10252019 22.3473008,1.42051282 22.7397641,1.42051282 L26.7681133,1.42051282 C16.757927,11.6624103 1.25068702,19.8843385 1.09079806,19.969001 C0.857229665,20.0819645 0.703831563,20.3131885 0.690627235,20.5721968 C0.677422908,20.8312052 0.806511831,21.0768158 1.02738251,21.2129232 C1.24825319,21.3490306 1.52578742,21.3539938 1.7513882,21.2258708 C1.91539875,21.1397877 17.5359112,12.8594764 27.7140874,2.48419282 L27.7140874,6.39230769 C27.7140874,6.78457148 28.0322418,7.1025641 28.4247051,7.1025641 C28.8171683,7.1025641 29.1353227,6.78457148 29.1353227,6.39230769 L29.1353227,0.71025641 L29.1323381,0.696051282 Z" id="Path"></path>
                    </g>
                </g>
            </g>
        </g>
    </g>
</svg>
